X:1
T:title
M:4/4
Q:120
L:1/8
R:Reel
K:C
 ^d'4 _D2 ^d' ^E |  _f'A4 _c'2 ^g' |  ^A4 _E4 |  _G _d2 ^E _b2 ^C ^G | G3 ^Dc'4 |  _b3 _a3 _G ^A | C3 _c ^A _fA2 | e4a'3 _c | 